packages/axiom-materials/src/icon_svgs/youtube-mono.svg

<?xml version="1.0" encoding="UTF-8"?>
<svg width="16px" height="16px" viewBox="0 0 16 16" version="1.1" xmlns="http://www.w3.org/2000/svg" xmlns:xlink="http://www.w3.org/1999/xlink">
    <g id="Youtube" stroke="none" stroke-width="1" fill="none" fill-rule="evenodd">
        <g id="Youtube" transform="translate(0.000000, 2.000000)" fill="#000000">
            <path d="M8.18297551,0.000502365227 C9.09457276,0.00439569573 13.145961,0.0384623377 14.2510909,0.336545455 C14.9395455,0.521727273 15.4816364,1.06736364 15.6656364,1.76027273 C15.9628485,2.87655556 15.9958721,5.07092593 15.9995413,5.54478252 L15.9995413,5.72794189 C15.9958721,6.20178451 15.9628485,8.39610101 15.6656364,9.51254545 C15.4816364,10.2053636 14.9395455,10.751 14.2510909,10.9362727 C13.0033636,11.2727273 8,11.2727273 8,11.2727273 L7.98795116,11.2727194 C7.71715933,11.2724526 2.96098701,11.2631143 1.74890909,10.9362727 C1.06054545,10.751 0.518363636,10.2053636 0.334363636,9.51254545 C-1.86517468e-14,8.25654545 -1.86517468e-14,5.63636364 -1.86517468e-14,5.63636364 L1.69874326e-05,5.62578307 C0.000458660681,5.44414104 0.0123838384,2.96957912 0.334363636,1.76027273 C0.518363636,1.06736364 1.06054545,0.521727273 1.74890909,0.336545455 C2.85403896,0.0384623377 6.90542724,0.00439569573 7.81702449,0.000502365227 Z M6.36363636,3.25736364 L6.36363636,8.01536364 L10.5454545,5.63645455 L6.36363636,3.25736364 Z" id="youtube"></path>
        </g>
    </g>
</svg>

<svg height="16" viewBox="0 0 16 16" width="16" xmlns="http://www.w3.org/2000/svg"><path d="m8.18297551.00050237c.91159725.00389333 4.96298549.03795997 6.06811539.33604309.6884546.18518181 1.2305455.73081818 1.4145455 1.42372727.2972121 1.11628283.3302357 3.3106532.3339049 3.78450979v.18315937c-.0036692.47384262-.0366928 2.66815912-.3339049 3.78460356-.184.69281815-.7260909 1.23845455-1.4145455 1.42372725-1.2477273.3364546-6.2510909.3364546-6.2510909.3364546l-.01204884-.0000079c-.27079183-.0002668-5.02696415-.0096051-6.23904207-.3364467-.68836364-.1852727-1.23054545-.7309091-1.41454545-1.42372725-.33436364-1.256-.33436364-3.87618181-.33436364-3.87618181l.00001699-.01058057c.00044167-.18164203.01236685-2.65620395.33434665-3.86551034.184-.69290909.72618181-1.23854546 1.41454545-1.42372727 1.10512987-.29808312 5.15651815-.33214976 6.0681154-.33604309zm-1.81933915 3.25686127v4.758l4.18181814-2.37890909z" fill-rule="evenodd" transform="translate(0 2)"/></svg>
